X:1
T:Title
%%score { ( 1 3 ) | ( 2 4 ) }
L:1/8
M:4/4
K:F
V:1 treble nm="Grand Piano"
V:3 treble 
V:2 bass 
V:4 bass 
V:1
 z4 z[Q:1/4=95] CDC | A6 z2 | G6 z2 | G6 z2 | F6 z2 | A6 z2 |[M:5/8] B-B- B3 |[M:3/8] DEF | %8
[M:4/4] A2 [A,F]2 .C2 .C2 |[M:2/4] [A,CF]4 |[M:12/8] A B2 A [EG]2- [EG] [EG]2 [FA][GB][GB] | %11
 [GB][EBd][EBd] [EBd] c2- [Ac-][Ac-][Gc-] [Fc-] [Ac]2 | A B2 A [EG]2- [EG] [EG]2 [Ec] [E=B]2 | %13
[M:9/8] [Gc] [Ge]2 [Fd] c2- [G,c-]3 |[M:2/4] [A,c-] [Gc]3 | c d2 c |[M:6/4] .A12 | %17
[M:4/4] B8[K:bass] |[M:2/4][K:treble] D E2 F |[M:6/4] A3 [A,F]3 .C3 .C3 |[M:9/8] [A,CF]8- [A,CF] |] %21
V:2
 z4 z A,B,A, | C6 z2 | B,6 z2 | B,6 z2 | A,6 z2 | C6[K:treble] z2 |[M:5/8][K:bass] D-D- D3 | %7
[M:3/8] B,C^C |[M:4/4] C2 z2 z4 |[M:2/4] F,,4 | %10
[M:12/8][K:treble] F G2[K:bass] [F,CF] [C,C]2 [C,C][C,C][C,C] [C,C][C,C][C,C] | %11
 [C,C]C,C, C, F,2 [F,C][F,C][F,B,] [F,A,] [F,C]2 | %12
 F G2[K:bass] [F,CF] [C,C]2 [C,C][C,C][C,C] [C,G,] [D,G,]2 | %13
[M:9/8] [E,C] [G,C]2 [G,=B,] C,2 C, [C,A,]2 |[M:2/4] C, [C,B,]3 | A B2 A | %16
[M:6/4] .F12[K:bass][K:treble] |[M:4/4] D8[K:bass] |[M:2/4] B, C2 D |[M:6/4] .C6 z6 | %20
[M:9/8] F,,8- F,, |] %21
V:3
 x8 | z FFF FCDC | z EEE EFEF | z EEE EBAG | z CCC CCDC | z FFF FAGA |[M:5/8] z FF FF |[M:3/8] x3 | %8
[M:4/4] z FCC [G,E]-[G,CE][B,G]-[B,CG] |[M:2/4] x4 |[M:12/8] x12 | z3 z [FA]2 z6 | x12 | %13
[M:9/8] z3 z [CE-]2 E F2- |[M:2/4] F z z2 | x4 |[M:6/4] z2 C C2 C C2 A G2 A | %17
[M:4/4] z2[K:bass] B,B,- B,B, F,2 |[M:2/4][K:treble] x4 | %19
[M:6/4] z2 F C2 C [G,E]2- [G,CE] [B,G]2- [B,CG] |[M:9/8] x9 |] %21
V:4
 x8 | z F,F,F, F,A,B,A, | z C,C,C, C,A,G,A, | z C,C,C, C,DCB, | %4
 z [F,,F,][F,,F,][F,,F,] [F,,F,]A,B,A, | z F,F,F, F,[K:treble]FE_E | %6
[M:5/8][K:bass] z B,,B,, B,,B,, |[M:3/8] x3 |[M:4/4] z C,C,C, C,C,C,C, |[M:2/4] x4 | %10
[M:12/8][K:treble] x3[K:bass] x9 | x12 | x3[K:bass] x9 |[M:9/8] x9 |[M:2/4] x4 | x4 | %16
[M:6/4] z2[K:bass] F, F,2 F, F,2[K:treble] F E2 _E |[M:4/4] z2[K:bass] B,,B,,- B,,B,, B,,2 | %18
[M:2/4] x4 |[M:6/4] z2 C, C,2 C, C,2 C, C,2 C, |[M:9/8] x9 |] %21

